X:1
T:RVW2/1/28 Poor Mary-0
T:RVW2/1/28 Poor Mary-0
T:Singing games heard at Stainton, Sept. 1907 (1 of 4)
T:Transcribed by Simon Furey and Lewis Jones
C:Transcribed by Simon Furey and Lewis Jones
L:1/8
Q:1/4=116
M:3/4
K:G
V:1 treble 
V:1
"^(editorial suggestion)" D2 | G3 ABc | d2 B2 B2 | c2 A2 A2 | B2 G2 G2 | G3 ABc | d2 B2 G2 | %7
 c2 A2 F2 | G4 |] %9

